Newaita-dark/actions/22/format-line-spacing-double.svg

<?xml version="1.0" encoding="UTF-8"?>
<svg xmlns="http://www.w3.org/2000/svg" xmlns:xlink="http://www.w3.org/1999/xlink" width="22pt" height="22pt" viewBox="0 0 22 22" version="1.1">
<g id="surface1">
<path style=" stroke:none;fill-rule:nonzero;fill:rgb(47.058824%,56.470591%,61.176473%);fill-opacity:1;" d="M 1.363281 5.175781 L 1.363281 17 L 5.914062 17 L 5.914062 15.179688 L 3.183594 15.179688 L 3.183594 11.996094 L 4.09375 11.996094 L 4.09375 10.175781 L 3.183594 10.175781 L 3.183594 6.992188 L 5.914062 6.992188 L 5.914062 5.175781 Z M 1.363281 5.175781 "/>
<path style=" stroke:none;fill-rule:nonzero;fill:rgb(74.117649%,74.117649%,74.117649%);fill-opacity:1;" d="M 6.820312 3.355469 C 6.316406 3.355469 5.914062 3.761719 5.914062 4.265625 L 5.914062 7.902344 C 5.914062 8.40625 6.316406 8.8125 6.820312 8.8125 L 19.554688 8.8125 C 20.058594 8.8125 20.464844 8.40625 20.464844 7.902344 L 20.464844 4.265625 C 20.464844 3.761719 20.058594 3.355469 19.554688 3.355469 Z M 7.730469 4.71875 L 18.648438 4.71875 C 18.898438 4.71875 19.101562 5.023438 19.101562 5.402344 L 19.101562 6.765625 C 19.101562 7.144531 18.898438 7.449219 18.648438 7.449219 L 7.730469 7.449219 C 7.480469 7.449219 7.277344 7.144531 7.277344 6.765625 L 7.277344 5.402344 C 7.277344 5.023438 7.480469 4.71875 7.730469 4.71875 Z M 7.730469 4.71875 "/>
<path style=" stroke:none;fill-rule:nonzero;fill:rgb(74.117649%,74.117649%,74.117649%);fill-opacity:1;" d="M 6.820312 13.359375 C 6.316406 13.359375 5.914062 13.765625 5.914062 14.269531 L 5.914062 17.910156 C 5.914062 18.414062 6.316406 18.820312 6.820312 18.820312 L 19.554688 18.820312 C 20.058594 18.820312 20.464844 18.414062 20.464844 17.910156 L 20.464844 14.269531 C 20.464844 13.765625 20.058594 13.359375 19.554688 13.359375 Z M 7.730469 14.726562 L 18.648438 14.726562 C 18.898438 14.726562 19.101562 15.03125 19.101562 15.40625 L 19.101562 16.773438 C 19.101562 17.148438 18.898438 17.453125 18.648438 17.453125 L 7.730469 17.453125 C 7.480469 17.453125 7.277344 17.148438 7.277344 16.773438 L 7.277344 15.40625 C 7.277344 15.03125 7.480469 14.726562 7.730469 14.726562 Z M 7.730469 14.726562 "/>
</g>
</svg>

<svg xmlns="http://www.w3.org/2000/svg" width="22pt" height="22pt" viewBox="0 0 22 22"><path d="M1.363 5.176V17h4.551v-1.82h-2.73v-3.184h.91v-1.82h-.91V6.992h2.73V5.176zm0 0" fill="#78909c"/><path d="M6.82 3.355a.905.905 0 0 0-.906.91v3.637c0 .504.402.91.906.91h12.735c.504 0 .91-.406.91-.91V4.266a.909.909 0 0 0-.91-.91zm.91 1.364h10.918c.25 0 .454.304.454.683v1.364c0 .379-.204.683-.454.683H7.73c-.25 0-.453-.304-.453-.683V5.402c0-.379.203-.683.453-.683zm0 0M6.82 13.36a.905.905 0 0 0-.906.91v3.64c0 .504.402.91.906.91h12.735c.504 0 .91-.406.91-.91v-3.64a.909.909 0 0 0-.91-.91zm.91 1.367h10.918c.25 0 .454.304.454.68v1.366c0 .375-.204.68-.454.68H7.73c-.25 0-.453-.305-.453-.68v-1.367c0-.375.203-.68.453-.68zm0 0" fill="#bdbdbd"/></svg>
